X: 19272
T: Ivory Lady
R: reel
M: 4/4
K: Gmajor
|:Gdeg d2 BA|BG G2 edBA|G2 cB cG G2|cBAG ABGD|
Gdeg d2 BA|BG G2 edBg|edcB cdde|1 cBAB AGED:|2 cBAB AGGG||
|:Bdde g2 ed|Bged egg2|eaab a3g|eaab abge|
Bdde g2 ed|Bged egg2|G2 cB cdde|1 cBAB AGGG:|2 cBAG ABGD||

